react/assets/icons/layers.svg

<svg width="48" height="48" viewBox="0 0 24 24" fill="none" xmlns="http://www.w3.org/2000/svg" aria-labelledby="layersIconTitle" stroke-linecap="square"><path d="M12 4l8 4-8 4-8-4 8-4zM20 12l-8 4-8-4M20 16l-8 4-8-4"/></svg>

<svg width="48px" height="48px" viewBox="0 0 24 24" fill="none" xmlns="http://www.w3.org/2000/svg" aria-labelledby="layersIconTitle" stroke-linecap="square" stroke-linejoin="miter"> <title id="layersIconTitle">Layers</title> <path d="M12 4L20 8.00004L12 12L4 8.00004L12 4Z"/> <path d="M20 12L12 16L4 12"/> <path d="M20 16L12 20L4 16"/> </svg>
